X: 145
T: Vårfloa
B: HSFs låtsamling
R: Polska
C: Manne Bergström
O: Ljusdal, Hälsingland
Z: LP
M: 3/4
L: 1/8
K: C
E|:G>F E>D C>c | cB/c/ d2 d>e| f>e d>c B>A | GA/B/ c>G E>C |
G>F E>D C>c | cB/c/ d2 d>e| f>e d>c B>A |1 GA/B/ c2>G2 :|2 GA/B/ c4|
g^f/g/ a>e =f2 | fe/f/ g>e c>e |f>e d>c B>A |GA/B/ c>e g2|
g^f/g/ a>e =f2 | fe/f/ {ga}g>e c>e |f>e d>c B>A |GA/B/ c4:|

